X: 78
T:Crowley's Reel No. 1
M:C|
L:1/8
R:Reel
K:D
A3d B2dB|AD(3FED AD (3FED|~A3d B2dB|cdeg fddB|!
"var."A2FA BcdB|AD(3FED AD (3FED|~A3dA B2dB|cdeg fdde|]!
~f3a g2fg|eA (3cBA eA (3cBA|f2df g2fg|afge fdde|!
~f3a g2fg|eA (3cBA eA (3cBA|f2af g2fg|afge fddB|]!
